dist/img/sprites/hQa.svg

<svg width="35" height="35" viewBox="0 0 35 35" fill="none" xmlns="http://www.w3.org/2000/svg">
<path d="M1.63754 29.709C2.56779 29.3013 3.49804 28.8926 4.42736 28.4831C5.82831 27.8669 7.27671 27.2293 8.70371 26.6084C8.91488 26.5162 9.19954 26.5014 9.4628 26.5693C10.1986 26.7583 10.9679 26.9723 11.8154 27.2255C11.9075 27.2535 12.2219 27.3633 12.3959 27.6239C14.4182 30.6463 17.3411 32.4586 21.0816 33.0106C23.1123 33.3103 25.1608 33.112 27.1701 32.4204C27.2557 32.3906 27.3534 32.3767 27.4548 32.3767C27.6017 32.3767 27.7552 32.4065 27.891 32.466C28.2352 32.6159 28.5804 32.7648 28.9255 32.9138C30.3357 33.5225 31.7934 34.1518 33.2083 34.8173C33.6353 35.0174 34.0446 35.0547 34.3628 34.9215C34.6437 34.8033 34.8586 34.5529 35 34.1769V33.7403L34.666 32.9147C34.1088 31.538 33.5321 30.1157 32.973 28.712C32.8921 28.5101 32.9209 28.2308 33.039 28.0605C34.1432 26.4762 34.787 24.7412 34.9526 22.9056C34.9591 22.8349 34.9814 22.7771 35 22.7353V21.0942C34.9684 20.923 34.9405 20.7517 34.9116 20.5804C34.8484 20.2034 34.7833 19.8134 34.6912 19.4439C34.0428 16.859 32.56 14.7172 30.2855 13.0789C29.9608 12.8453 29.798 12.5837 29.7413 12.2058C28.9525 6.96718 26.0259 3.33699 20.796 1.10954C19.4295 0.527774 17.8871 0.173132 16.2127 0.05678C16.1206 0.0502642 16.0397 0.0288554 15.969 0.010239C15.9559 0.00651573 15.9429 0.00372328 15.9299 0H13.9019C13.7019 0.0279246 13.501 0.0530567 13.3001 0.0781888C12.8656 0.133107 12.4163 0.188956 11.9856 0.27273C7.8423 1.0751 4.5762 3.15548 2.27941 6.45709C-0.818317 10.9092 -0.753199 16.8674 2.44128 21.2832C2.67756 21.609 2.71198 21.9087 2.55849 22.2829C1.70824 24.353 0.884969 26.3906 0.110072 28.3397C-0.0434193 28.7251 -0.00155807 29.1393 0.220772 29.4465C0.427287 29.7304 0.754735 29.8812 1.11846 29.8579C1.25986 29.8486 1.4301 29.8002 1.63847 29.709H1.63754ZM2.14453 13.5276C2.22918 10.3498 3.51757 7.64296 5.97436 5.48159C8.97814 2.839 12.5949 1.75646 16.7234 2.26468C20.036 2.67238 22.8193 4.13377 24.9942 6.60695C28.1571 10.2027 28.5924 15.3613 26.077 19.443C25.8491 19.8134 25.7301 20.0908 25.7998 20.411C25.904 20.8922 26.1775 21.1678 26.6603 21.2795C27.0557 21.3707 27.4966 21.1808 27.7329 20.8178C28.6259 19.4467 29.2455 17.9471 29.5757 16.3601C29.5915 16.2856 29.6083 16.2121 29.6297 16.1162L29.8101 15.3101L30.2325 15.7923C30.3255 15.8993 30.4167 15.9998 30.506 16.0985C30.6948 16.308 30.8725 16.5053 31.039 16.7184C32.2502 18.2645 32.8828 20.0917 32.8679 22.0018C32.853 23.9146 32.1906 25.7316 30.9516 27.2553C30.5143 27.7933 30.4436 28.2532 30.7078 28.8405C30.9357 29.3469 31.1385 29.8625 31.3525 30.408C31.4492 30.6547 31.5488 30.9078 31.6548 31.1703L31.9544 31.9131L31.2213 31.5901C30.905 31.4505 30.5971 31.3174 30.2967 31.1862C29.5999 30.8836 28.9422 30.5979 28.2901 30.2879C27.8138 30.0608 27.3841 30.0534 26.8054 30.2609C25.411 30.7617 24.0547 31.0121 22.7402 31.0121C20.3309 31.0121 18.0648 30.1716 15.968 28.4942C15.8694 28.4151 15.7811 28.3323 15.6797 28.2364C15.6304 28.1899 15.5773 28.1396 15.5178 28.0856L14.9875 27.6016L15.7001 27.5215C15.8629 27.5029 16.0192 27.4862 16.1718 27.4694C16.4853 27.435 16.7811 27.4033 17.075 27.3652C18.7969 27.1436 20.4546 26.64 22.0035 25.8693C22.6342 25.5556 22.8705 24.9618 22.5905 24.393C22.3105 23.8243 21.6965 23.6484 21.0621 23.9546C17.8267 25.5138 14.4117 25.7949 10.9131 24.7905C10.473 24.6639 10.0451 24.4954 9.6321 24.3325L9.57629 24.3102C9.22 24.1697 8.89349 24.1762 8.54929 24.3298C7.43113 24.8296 6.29065 25.3295 5.1883 25.8135C4.80225 25.9829 4.41713 26.1514 4.032 26.3208C3.99479 26.3375 3.95572 26.3515 3.89712 26.3729C3.86828 26.3831 3.83386 26.3962 3.79014 26.412L3.14082 26.654L3.36874 25.9996C3.38827 25.9438 3.40501 25.8945 3.4199 25.8488C3.4506 25.7567 3.47757 25.6766 3.51013 25.5947C3.63851 25.2745 3.76595 24.9543 3.8934 24.6341C4.21526 23.8252 4.54736 22.9884 4.89806 22.173C5.139 21.6118 5.07016 21.1789 4.65806 20.6781C2.91849 18.5615 2.07104 16.1562 2.14081 13.5285L2.14453 13.5276Z" fill="#4B8125"/>
<path d="M14.8756 17.5319C15.1714 17.5459 15.4635 17.4361 15.6774 17.235C15.8644 17.0591 15.9695 16.8292 15.9742 16.5872C15.9919 15.6061 16.5835 15.1798 17.0979 14.9182C18.7547 14.0758 19.7212 12.6349 19.8208 10.8608C19.8263 9.23555 19.1575 7.74066 17.9835 6.75864C16.883 5.83806 15.4421 5.46015 14.0309 5.72171C11.7127 6.15175 9.99268 8.21724 10.0299 10.5257C10.0364 10.9045 10.2215 11.2489 10.5266 11.4462C10.8197 11.6361 11.175 11.6641 11.5015 11.5235C11.9434 11.3327 12.1499 10.9948 12.1713 10.4261C12.1992 9.66187 12.5546 8.93397 13.1462 8.43133C13.6476 8.00501 14.2783 7.77324 14.9174 7.77324C15.0263 7.77324 15.136 7.77975 15.2449 7.79372C16.0253 7.89145 16.7305 8.31218 17.1798 8.94793C17.631 9.58647 17.7872 10.3609 17.6198 11.1288C17.4254 12.0196 16.8728 12.6759 15.9295 13.1348C14.5583 13.8022 13.8634 14.935 13.8644 16.5006C13.8644 17.0544 14.309 17.5068 14.8765 17.531L14.8756 17.5319Z" fill="#4B8125"/>
<path d="M14.8533 19.8582C14.8533 19.8582 14.8486 19.8582 14.8458 19.8582C14.2589 19.8619 13.7854 20.345 13.7891 20.9333C13.7909 21.2162 13.9044 21.4834 14.1072 21.6835C14.3091 21.8818 14.5742 21.9916 14.8552 21.9916C14.8579 21.9916 14.8607 21.9916 14.8626 21.9916C15.4496 21.9869 15.924 21.5048 15.9203 20.9156C15.9156 20.331 15.4384 19.8582 14.8533 19.8582Z" fill="#4B8125"/>
</svg>

<svg width="35" height="35" viewBox="0 0 35 35" fill="none" xmlns="http://www.w3.org/2000/svg"><path d="M1.638 29.709c.93-.408 1.86-.816 2.79-1.226 1.4-.616 2.849-1.254 4.276-1.875.21-.092.496-.107.759-.039.736.19 1.505.403 2.352.657.093.027.407.137.58.398 2.023 3.022 4.946 4.835 8.687 5.387 2.03.3 4.079.101 6.088-.59a.873.873 0 01.285-.044c.147 0 .3.03.436.089.344.15.69.299 1.035.448 1.41.608 2.867 1.238 4.282 1.903.427.2.837.238 1.155.105.28-.119.496-.37.637-.745v-.437l-.334-.825c-.557-1.377-1.134-2.8-1.693-4.203a.748.748 0 01.066-.651c1.104-1.585 1.748-3.32 1.914-5.155a.535.535 0 01.047-.17v-1.642c-.032-.171-.06-.342-.088-.514-.064-.377-.129-.767-.22-1.136-.65-2.585-2.132-4.727-4.407-6.365-.324-.234-.487-.495-.544-.873-.788-5.239-3.715-8.869-8.945-11.096C19.43.528 17.887.173 16.213.057a1.29 1.29 0 01-.244-.047l-.04-.01h-2.027c-.2.028-.401.053-.602.078-.434.055-.884.111-1.314.195-4.144.802-7.41 2.882-9.707 6.184-3.097 4.452-3.032 10.41.162 14.826.237.326.271.626.117 1C1.708 24.353.885 26.39.11 28.34c-.153.385-.112.8.11 1.107.207.283.535.434.898.41.142-.008.312-.057.52-.148zm.507-16.181c.084-3.178 1.373-5.885 3.83-8.046 3.003-2.643 6.62-3.726 10.748-3.217 3.313.407 6.096 1.869 8.271 4.342a10.774 10.774 0 011.083 12.836c-.228.37-.347.648-.277.968.104.481.377.757.86.868.396.092.837-.098 1.073-.461a12.983 12.983 0 001.843-4.458c.015-.074.032-.148.054-.244l.18-.806.423.482c.093.107.184.208.273.307.189.209.366.406.533.62 1.211 1.546 1.844 3.373 1.829 5.283-.015 1.913-.677 3.73-1.916 5.253-.438.538-.508.998-.244 1.585.228.507.43 1.023.645 1.568.096.247.196.5.302.762l.3.743-.734-.323c-.316-.14-.624-.273-.924-.404a64.392 64.392 0 01-2.007-.898c-.476-.227-.906-.235-1.485-.027-1.394.5-2.75.751-4.065.751-2.41 0-4.675-.84-6.772-2.518a4.677 4.677 0 01-.288-.258l-.162-.15-.53-.484.712-.08c.163-.02.32-.036.472-.053.313-.034.61-.066.903-.104a15.468 15.468 0 004.928-1.496c.631-.313.867-.907.587-1.476s-.893-.745-1.528-.438c-3.235 1.559-6.65 1.84-10.149.836a14.23 14.23 0 01-1.28-.459l-.057-.022a1.25 1.25 0 00-1.027.02c-1.118.5-2.258 1-3.36 1.484-.387.169-.772.337-1.157.507-.037.016-.076.03-.135.052l-.107.039-.65.242.23-.654c.02-.056.036-.105.05-.151a4.69 4.69 0 01.091-.254c.129-.32.256-.64.383-.96.322-.81.654-1.647 1.005-2.462.241-.561.172-.994-.24-1.495-1.74-2.117-2.587-4.522-2.517-7.15h.004z" fill="#4B8125"/><path d="M14.876 17.532a1.1 1.1 0 00.801-.297.912.912 0 00.297-.648c.018-.98.61-1.407 1.124-1.669 1.657-.842 2.623-2.283 2.723-4.057.005-1.625-.664-3.12-1.838-4.102a4.783 4.783 0 00-3.952-1.037c-2.318.43-4.038 2.495-4.001 4.804.006.379.192.723.497.92.293.19.648.218.975.078.441-.191.648-.53.67-1.098a2.761 2.761 0 01.974-1.995 2.743 2.743 0 012.099-.637c.78.097 1.486.518 1.935 1.154a2.73 2.73 0 01.44 2.18c-.195.892-.747 1.548-1.69 2.007-1.372.667-2.067 1.8-2.066 3.366 0 .553.445 1.006 1.012 1.03zm-.023 2.326h-.007a1.067 1.067 0 00.01 2.134h.007a1.068 1.068 0 00-.01-2.133z" fill="#4B8125"/></svg>
